X:1
T:Low in the Grave He Lay
T:Low in the Grave He Lay
T:Robert  Lowry
T:Robert  Lowry, 1874
T:Public Domain Courtesy of the Cyber Hymnal™
C:Robert  Lowry
Z:Public Domain
Z:Courtesy of the Cyber Hymnal™
%%score ( 1 2 ) ( 3 4 )
L:1/8
Q:1/4=110
M:4/4
K:C
V:1 treble 
V:2 treble 
V:3 bass 
V:4 bass 
V:1
 [EG]4 [EG]2 [FA]2 | [FA]2 [EG]2 [EG]4 | [DG]4 [DF]2 [FA]2 | [FA]4 [EG]4 | [FA]4 [GB]2 [Ac]2 | %5
w: 1.~Low in the|grave He lay,|Je- sus my|Sav- ior,|Wait- ing the|
w: 2.~Vain- ly they|watch His bed,|Je- sus my|Sav- ior;|Vain- ly they|
w: 3.~Death can- not|keep its prey,|Je- sus my|Sav- ior;|He tore the|
 [Gc]2 [EG]2 [EG]4 | [EA]4 [DG]2 [C^F]2 | [B,G]8 ||"^Refrain" C2 C>C E2 G>G | [Ec]6 [Ec]>[Fd] | %10
w: com- ing day,|Je- sus my|Lord!|||
w: seal the dead,|Je- sus my|Lord!|Up from the grave He a-|rose, With a|
w: bars a- way,|Je- sus my|Lord!|||
 [Ge]2 [Gc]2 [Ad][Ac][GB][FA] | [EG]6 [DB]>[Ec] | [Fd]2 [Fd]2 [Fd][Ec][Fd][Ge] | %13
w: |||
w: might- y tri- umph o’er His|foes, He a-|rose a vic- tor from the|
w: |||
 [Ec]2 [FA]2 [EG]2 [EG]>[EG] | [FA]2 [FA]2 [^FA][Fd][Fd][Ac] | B2 [Ec]2 [Fd]2 G>G | %16
w: |||
w: dark do- main, And He|lives for- ev- er, with His|saints to reign. He a-|
w: |||
 [Ge]6 [Fd]>[Ec] | [Af]6 [Ge]>[Fd] | [Ec]2 [EG]2 [Ge]3 [Fd] | [Ec]8 |] %20
w: ||||
w: rose! He a-|rose! Hal- le-|lu- jah! Christ a-|rose!|
w: ||||
V:2
 x8 | x8 | x8 | x8 | x8 | x8 | x8 | x8 || C2 C>C E2 G>G | x8 | x8 | x8 | x8 | x8 | x8 | %15
 (GF) x3 G>G x | x8 | x8 | x8 | x8 |] %20
V:3
 [C,C]4 [C,C]2 [C,C]2 | [C,C]2 [C,C]2 [C,C]4 | [G,,B,]4 [G,,B,]2 [G,,B,]2 | [C,C]4 [C,C]4 | %4
w: ~ ~ ~|~ ~ ~|~ ~ ~|~ ~|
 [F,C]4 [F,C]2 [F,C]2 | [E,C]2 [C,C]2 [C,C]4 | [C,C]4 [D,B,]2 [D,A,]2 | [G,,G,]8 || %8
w: ~ ~ ~|~ ~ ~|~ ~ ~|~|
 C,2 C,>C, E,2 G,>G, | [C,G,]2 [C,G,]>[C,G,] [C,G,]2 [C,C]>[C,C] | %10
w: ~ ~ ~ ~ ~ ~|~ He a- rose! ~ ~|
 [C,C]2 [E,C]2 [F,C][F,C][F,C][F,C] | [C,C]2 [C,C]>[C,C] [C,C]2 G,>G, | G,2 G,2 G,G,G,G, | %13
w: ~ ~ ~ ~ ~ ~|~ He a- rose! ~ ~|~ ~ ~ ~ ~ ~|
 [A,C]2 [F,C]2 [C,C]2 [C,C]>[C,C] | [F,C]2 [F,C]2 [D,C][D,A,][D,A,][D,D] | %15
w: ~ ~ ~ ~ ~|~ ~ ~ ~ ~ ~|
 [G,D]2 [A,C]2 [G,B,]2 z2 | z2 C>C C2 z2 | z2 [F,C]>[F,C] [F,C]2 [F,C]>[F,A,] | %18
w: ~ ~ ~|He a- rose!|He a- rose! * *|
 G,2 [G,C]2 [G,C]3 [G,B,] | [C,C]8 |] %20
w: ||
V:4
 x8 | x8 | x8 | x8 | x8 | x8 | x8 | x8 || C,2 C,>C, E,2 G,>G, | x8 | x8 | x6 G,>G, | %12
 G,2 G,2 G,G,G,G, | x8 | x8 | x8 | x8 | x8 | G,2 x6 | x8 |] %20

